img/sprite/plane.svg

<svg width="17" height="17" viewBox="0 0 17 17" fill="none" xmlns="http://www.w3.org/2000/svg">
<path d="M14.4569 2.38799C14.1234 2.04573 13.6299 1.91822 13.1697 2.05244L2.43867 5.17302C1.95313 5.3079 1.60899 5.69512 1.51629 6.18703C1.42158 6.68767 1.75239 7.32319 2.18456 7.58894L5.53994 9.65121C5.88408 9.8626 6.32826 9.80958 6.61304 9.52236L10.4553 5.6562C10.6487 5.45487 10.9688 5.45487 11.1622 5.6562C11.3556 5.85082 11.3556 6.16623 11.1622 6.36756L7.31333 10.2344C7.02788 10.5209 6.97452 10.9672 7.18461 11.3135L9.23478 14.7025C9.47488 15.1052 9.88838 15.3333 10.3419 15.3333C10.3953 15.3333 10.4553 15.3333 10.5086 15.3266C11.0288 15.2595 11.4424 14.9038 11.5957 14.4005L14.7771 3.68319C14.9171 3.22685 14.7904 2.73024 14.4569 2.38799Z" fill="white"/>
</svg>

<svg width="17" height="17" fill="none" xmlns="http://www.w3.org/2000/svg"><path d="M14.457 2.388a1.289 1.289 0 0 0-1.287-.336L2.439 5.173a1.28 1.28 0 0 0-.923 1.014c-.094.5.236 1.136.669 1.402L5.54 9.65a.87.87 0 0 0 1.073-.129l3.842-3.866a.49.49 0 0 1 .707 0 .509.509 0 0 1 0 .712l-3.849 3.866a.882.882 0 0 0-.128 1.08l2.05 3.389c.24.402.653.63 1.107.63.053 0 .113 0 .167-.006a1.3 1.3 0 0 0 1.087-.927l3.181-10.717a1.31 1.31 0 0 0-.32-1.295Z" fill="#fff"/></svg>
